wwwroot/icons/weather-icons/iconfinder_Thermometer_Warm_3741363.svg

<?xml version="1.0" ?><svg height="32px" version="1.1" viewBox="0 0 32 32" width="32px" xmlns="http://www.w3.org/2000/svg" xmlns:xlink="http://www.w3.org/1999/xlink"><title/><desc/><defs/><g fill="none" fill-rule="evenodd" id="Thermometer-Warm" stroke="none" stroke-width="1"><g id="Group" stroke="#979797" stroke-width="2" transform="translate(7.000000, 2.000000)"><path d="M3,16.8026932 L3,3 C3,1.34314575 4.34314575,3.04359188e-16 6,0 C7.65685425,-3.04359188e-16 9,1.34314575 9,3 L9,16.8026932 C10.7934041,17.8401214 12,19.7791529 12,22 C12,25.3137085 9.3137085,28 6,28 C2.6862915,28 0,25.3137085 0,22 C0,19.7791529 1.20659589,17.8401214 3,16.8026932 Z" id="Combined-Shape"/><path d="M13,5 L18,5" id="Path-19" stroke-linecap="round"/><path d="M13,9 L18,9" id="Path-20" stroke-linecap="round"/><path d="M13,13 L18,13" id="Path-21" stroke-linecap="round"/></g><path d="M13,27 C14.6568542,27 16,25.6568542 16,24 C16,22.3431458 15.6568542,24 14,24 C12.3431458,24 10,22.3431458 10,24 C10,25.6568542 11.3431458,27 13,27 Z" fill="#CCCCCC" id="Oval"/></g></svg>

<?xml version="1.0" encoding="utf-8"?>
<!-- Generator: Adobe Illustrator 25.0.1, SVG Export Plug-In . SVG Version: 6.00 Build 0)  -->
<svg version="1.1" id="Layer_1" xmlns="http://www.w3.org/2000/svg" xmlns:xlink="http://www.w3.org/1999/xlink" x="0px" y="0px"
	 viewBox="0 0 32 32" style="enable-background:new 0 0 32 32;" xml:space="preserve">
<style type="text/css">
	.st0{fill:none;stroke:#FFFFFF;stroke-width:2;}
	.st1{fill:none;stroke:#FFFFFF;stroke-width:2;stroke-linecap:round;}
	.st2{fill-rule:evenodd;clip-rule:evenodd;fill:#FFFFFF;}
</style>
<desc></desc>
<g id="Thermometer-Warm">
	<g id="Group" transform="translate(7.000000, 2.000000)">
		<path id="Combined-Shape" class="st0" d="M3,16.8V3c0-1.7,1.3-3,3-3s3,1.3,3,3v13.8c1.8,1,3,3,3,5.2c0,3.3-2.7,6-6,6s-6-2.7-6-6
			C0,19.8,1.2,17.8,3,16.8z"/>
		<path id="Path-19" class="st1" d="M13,5h5"/>
		<path id="Path-20" class="st1" d="M13,9h5"/>
		<path id="Path-21" class="st1" d="M13,13h5"/>
	</g>
	<path id="Oval" class="st2" d="M13,27c1.7,0,3-1.3,3-3s-0.3,0-2,0s-4-1.7-4,0S11.3,27,13,27z"/>
</g>
</svg>
